src/images/courses/pwa/card.svg

<svg width="640" height="320" viewBox="0 0 640 320" fill="none" xmlns="http://www.w3.org/2000/svg">
<g clip-path="url(#clip0_815:566)">
<rect width="640" height="320" fill="white"/>
<g clip-path="url(#clip1_815:566)">
<circle cx="378" cy="20" r="40" fill="#FFDDFF" fill-opacity="0.16"/>
<circle cx="378" cy="268" r="40" fill="#FFDDFF" fill-opacity="0.24"/>
<circle cx="602" cy="268" r="40" fill="#DDEEDD" fill-opacity="0.16"/>
<circle cx="266" cy="308" r="40" fill="#DDEEDD" fill-opacity="0.16"/>
<circle cx="154" cy="20" r="40" fill="#FFDDFF" fill-opacity="0.24"/>
<path fill-rule="evenodd" clip-rule="evenodd" d="M158.984 6.50768L158.191 8.31165C156.824 8.10639 155.424 8 154 8C146.268 8 139.268 11.134 134.201 16.201L132.787 14.7868C138.216 9.35786 145.716 6 154 6C155.712 6 157.39 6.14341 159.024 6.41888C159.01 6.44808 158.997 6.47768 158.984 6.50768ZM154 14C154.56 14 155.116 14.021 155.666 14.0621L154.808 16.016C154.54 16.0054 154.27 16 154 16C148.477 16 143.477 18.2386 139.858 21.8579L138.443 20.4437C142.425 16.4624 147.925 14 154 14ZM163.268 16.0416L162.897 18.0831C164.848 19.0535 166.617 20.3332 168.142 21.8579L169.556 20.4437C167.745 18.6323 165.619 17.1353 163.268 16.0416ZM144.1 26.1005C146.217 23.9836 149.009 22.5414 152.125 22.1244L151.152 24.3399C148.982 24.868 147.043 25.9861 145.515 27.5147L144.1 26.1005ZM161.76 24.3458L161.364 26.5249C161.758 26.8316 162.133 27.1622 162.485 27.5147L163.899 26.1005C163.247 25.4481 162.53 24.8597 161.76 24.3458ZM164.682 8.24989L164.368 9.98224C167.93 11.4031 171.132 13.5343 173.799 16.201L175.213 14.7868C172.26 11.8335 168.694 9.49308 164.722 7.9727C164.712 8.06363 164.699 8.15604 164.682 8.24989ZM155.912 33.5848C155.589 34.6411 154.471 35.2356 153.415 34.9126C152.359 34.5897 151.764 33.4716 152.087 32.4153L152.345 31.5711L159.228 15.8987L156.171 32.7406L155.912 33.5848ZM160.815 7.3119L150.467 30.8742L150.175 31.8305C149.529 33.9431 150.718 36.1793 152.83 36.8252C154.943 37.4711 157.179 36.2821 157.825 34.1695L158.117 33.2132L162.714 7.89263C162.926 6.72604 161.292 6.22631 160.815 7.3119Z" fill="#9933FF"/>
<circle cx="154" cy="268" r="40" fill="#FFDDFF" fill-opacity="0.32"/>
<path fill-rule="evenodd" clip-rule="evenodd" d="M168.969 282C170.884 279.14 172 275.703 172 272C172 267.925 170.646 264.166 168.363 261.149L169.526 259.391C172.323 262.832 174 267.22 174 272C174 276.502 172.512 280.657 170.001 284H137.999C135.488 280.657 134 276.502 134 272C134 260.954 142.954 252 154 252C158.78 252 163.168 253.677 166.609 256.474L164.851 257.637C161.834 255.354 158.075 254 154 254C144.059 254 136 262.059 136 272C136 275.703 137.116 279.14 139.031 282H168.969ZM155.542 273.274C155.502 273.322 155.46 273.369 155.414 273.414C154.633 274.195 153.367 274.195 152.586 273.414C151.805 272.633 151.805 271.367 152.586 270.586C152.631 270.54 152.678 270.498 152.726 270.458L161.052 264.948L155.542 273.274ZM163.875 260.682L151.547 268.84C151.417 268.941 151.291 269.052 151.172 269.172C149.609 270.734 149.609 273.266 151.172 274.828C152.734 276.391 155.266 276.391 156.828 274.828C156.948 274.709 157.059 274.583 157.16 274.453L165.318 262.125L168.142 257.858L163.875 260.682Z" fill="#9933FF"/>
<circle cx="266" cy="60" r="40" fill="#DDEEDD" fill-opacity="0.32"/>
<path d="M257 48C257 49.6477 255.648 51 254 51C252.352 51 251 49.6477 251 48C251 46.3523 252.352 45 254 45C255.648 45 257 46.3523 257 48ZM269 72C269 73.6477 267.648 75 266 75C264.352 75 263 73.6477 263 72C263 70.3523 264.352 69 266 69C267.648 69 269 70.3523 269 72ZM257 72C257 73.6477 255.648 75 254 75C252.352 75 251 73.6477 251 72C251 70.3523 252.352 69 254 69C255.648 69 257 70.3523 257 72ZM257 60C257 61.6477 255.648 63 254 63C252.352 63 251 61.6477 251 60C251 58.3523 252.352 57 254 57C255.648 57 257 58.3523 257 60ZM269 60C269 61.6477 267.648 63 266 63C264.352 63 263 61.6477 263 60C263 58.3523 264.352 57 266 57C267.648 57 269 58.3523 269 60ZM278 51C276.352 51 275 49.6477 275 48C275 46.3523 276.352 45 278 45C279.648 45 281 46.3523 281 48C281 49.6477 279.648 51 278 51ZM269 48C269 49.6477 267.648 51 266 51C264.352 51 263 49.6477 263 48C263 46.3523 264.352 45 266 45C267.648 45 269 46.3523 269 48ZM281 60C281 61.6477 279.648 63 278 63C276.352 63 275 61.6477 275 60C275 58.3523 276.352 57 278 57C279.648 57 281 58.3523 281 60ZM281 72C281 73.6477 279.648 75 278 75C276.352 75 275 73.6477 275 72C275 70.3523 276.352 69 278 69C279.648 69 281 70.3523 281 72Z" stroke="#33CC00" stroke-width="2"/>
<circle cx="490" cy="60" r="40" fill="#FFDDFF" fill-opacity="0.24"/>
<path d="M488.297 42.1622C488.297 40.968 489.265 40 490.46 40C491.654 40 492.622 40.968 492.622 42.1622" stroke="#9933FF" stroke-width="2"/>
<path d="M486.271 74.5946C486.183 74.9401 486.135 75.3024 486.135 75.6757C486.135 78.0639 488.071 80 490.46 80C492.848 80 494.784 78.0639 494.784 75.6757C494.784 75.3024 494.737 74.9401 494.648 74.5946" stroke="#9933FF" stroke-width="2"/>
<path d="M477.486 55.1351C477.486 47.9704 483.295 42.1622 490.459 42.1622V42.1622C497.624 42.1622 503.432 47.9704 503.432 55.1351V66.0889C503.432 66.5554 503.596 67.0071 503.895 67.3654L509.919 74.5946H471L477.024 67.3654C477.323 67.0071 477.486 66.5554 477.486 66.0889V55.1351Z" stroke="#9933FF" stroke-width="2" stroke-linecap="round" stroke-linejoin="round"/>
<circle cx="490" cy="308" r="40" fill="#DDEEDD" fill-opacity="0.32"/>
<path fill-rule="evenodd" clip-rule="evenodd" d="M474 290H490V292H474V324H506V308H508V324C508 325.105 507.105 326 506 326H474C472.895 326 472 325.105 472 324V292C472 290.895 472.895 290 474 290ZM507 290H494V292H504.586L482.293 314.293L483.707 315.707L506 293.414V304H508V291V290H507Z" fill="#33CC00"/>
<circle cx="602" cy="20" r="40" fill="#DDEEDD" fill-opacity="0.32"/>
<path fill-rule="evenodd" clip-rule="evenodd" d="M592 0H612V4H592V0ZM592 6V34H612V6H592ZM612 36H592L592 40H612V36ZM590 36V34V6V4V7.15256e-07C590 -1.10457 590.895 -2 592 -2H612C613.105 -2 614 -1.10457 614 0V4V6V34V36V40C614 41.1046 613.105 42 612 42H592C590.895 42 590 41.1046 590 40V36Z" fill="#33CC00"/>
<circle cx="490" cy="180" r="40" fill="#DDEEDD" fill-opacity="0.24"/>
<path fill-rule="evenodd" clip-rule="evenodd" d="M474 166H506V190H474V166ZM472 166C472 164.895 472.895 164 474 164H506C507.105 164 508 164.895 508 166V190C508 191.105 507.105 192 506 192H474C472.895 192 472 191.105 472 190V166ZM512 194H468V196H512V194Z" fill="#33CC00"/>
<circle cx="602" cy="140" r="40" fill="#FFDDFF" fill-opacity="0.24"/>
<path fill-rule="evenodd" clip-rule="evenodd" d="M602 122H586C584.895 122 584 122.895 584 124V150C584 151.105 584.895 152 586 152H593H602H611H618C619.105 152 620 151.105 620 150V142H618V150H611H602H593H586V124H602V122Z" fill="#9933FF"/>
<path d="M594 151L591 154V157H613V154L610 151" stroke="#9933FF" stroke-width="2"/>
<path d="M611 122V142M611 142L620 133M611 142L602 133" stroke="#9933FF" stroke-width="2"/>
</g>
<path d="M24 140H30.1202V173.279H46.8962V179.126H24V140Z" fill="#3C4043"/>
<path d="M63.7596 180C61.1003 180 58.6959 179.381 56.5465 178.142C54.4336 176.903 52.776 175.191 51.5739 173.005C50.3717 170.783 49.7706 168.306 49.7706 165.574C49.7706 162.951 50.3352 160.546 51.4646 158.361C52.6303 156.138 54.2514 154.39 56.328 153.115C58.4045 151.803 60.7724 151.148 63.4318 151.148C66.164 151.148 68.532 151.749 70.5356 152.951C72.5757 154.153 74.1239 155.829 75.1804 157.978C76.2369 160.091 76.7651 162.532 76.7651 165.301C76.7651 165.628 76.7469 165.956 76.7105 166.284C76.674 166.612 76.6558 166.794 76.6558 166.831H55.7815C55.9637 169.308 56.8562 171.22 58.4591 172.568C60.062 173.916 61.8835 174.59 63.9236 174.59C67.0565 174.59 69.4609 173.133 71.1367 170.219L76.2733 172.678C75.0711 174.9 73.3953 176.685 71.246 178.033C69.1331 179.344 66.6376 180 63.7596 180ZM70.6449 162.24C70.572 161.366 70.2806 160.474 69.7706 159.563C69.2606 158.652 68.4591 157.887 67.3662 157.268C66.3097 156.612 64.98 156.284 63.3771 156.284C61.5921 156.284 60.0438 156.831 58.7323 157.923C57.4573 159.016 56.583 160.455 56.1094 162.24H70.6449Z" fill="#3C4043"/>
<path d="M90.8857 180C88.9549 180 87.2062 179.617 85.6398 178.852C84.1097 178.051 82.8893 176.958 81.9786 175.574C81.1042 174.153 80.6671 172.55 80.6671 170.765C80.6671 167.923 81.7236 165.683 83.8365 164.044C85.9859 162.404 88.6999 161.585 91.9786 161.585C94.8565 161.585 97.3155 162.077 99.3556 163.06V161.913C99.3556 160.273 98.6999 158.925 97.3884 157.869C96.1133 156.776 94.5651 156.23 92.7436 156.23C89.9749 156.23 87.7527 157.359 86.0769 159.617L81.4868 156.448C82.7618 154.736 84.3465 153.424 86.2409 152.514C88.1716 151.603 90.3392 151.148 92.7436 151.148C96.7144 151.148 99.7746 152.149 101.924 154.153C104.11 156.12 105.203 158.907 105.203 162.514V179.126H99.3556V175.792H99.0277C98.1534 177.031 97.0423 178.051 95.6944 178.852C94.3465 179.617 92.7436 180 90.8857 180ZM91.8693 175.027C93.2172 175.027 94.4558 174.699 95.5851 174.044C96.7509 173.352 97.6616 172.459 98.3174 171.366C99.0095 170.237 99.3556 169.035 99.3556 167.76C97.4248 166.703 95.3665 166.175 93.1807 166.175C91.1771 166.175 89.6106 166.612 88.4813 167.486C87.352 168.361 86.7873 169.472 86.7873 170.82C86.7873 172.058 87.2791 173.078 88.2627 173.88C89.2828 174.645 90.4849 175.027 91.8693 175.027Z" fill="#3C4043"/>
<path d="M111.549 152.022H117.232V156.066H117.56C118.142 154.681 119.199 153.534 120.729 152.623C122.259 151.676 123.826 151.202 125.428 151.202C126.74 151.202 127.815 151.384 128.652 151.749V158.033C127.414 157.413 126.03 157.104 124.499 157.104C122.532 157.104 120.875 157.869 119.527 159.399C118.215 160.893 117.56 162.732 117.56 164.918V179.126H111.549V152.022Z" fill="#3C4043"/>
<path d="M133.054 152.022H138.737V155.628H139.065C139.867 154.317 141.033 153.242 142.563 152.404C144.093 151.566 145.75 151.148 147.535 151.148C150.887 151.148 153.419 152.131 155.131 154.098C156.88 156.066 157.754 158.78 157.754 162.24V179.126H151.743V163.06C151.743 158.798 149.757 156.667 145.787 156.667C143.783 156.667 142.162 157.468 140.923 159.071C139.685 160.674 139.065 162.568 139.065 164.754V179.126H133.054V152.022Z" fill="#3C4043"/>
<path d="M169.754 179.668V140H183.383C185.783 140 187.963 140.517 189.92 141.551C191.878 142.585 193.429 144.007 194.574 145.817C195.756 147.627 196.347 149.732 196.347 152.133C196.347 154.534 195.756 156.657 194.574 158.504C193.429 160.314 191.878 161.736 189.92 162.77C187.963 163.767 185.783 164.266 183.383 164.266H175.848V179.668H169.754ZM183.549 145.762H175.848V158.504H183.549C184.989 158.504 186.208 158.209 187.205 157.618C188.203 156.99 188.96 156.196 189.477 155.235C190.031 154.238 190.308 153.204 190.308 152.133C190.308 151.062 190.031 150.046 189.477 149.086C188.96 148.126 188.203 147.331 187.205 146.704C186.208 146.076 184.989 145.762 183.549 145.762Z" fill="url(#paint0_linear_815:566)"/>
<path d="M209.686 179.668L199.049 140H205.808L212.124 165.762L212.788 169.197H213.121L213.952 165.762L221.93 140H228.024L235.669 165.762L236.5 169.141H236.833L237.498 165.762L243.813 140H250.517L240.046 179.668H233.619L226.029 153.352L225.143 149.64H224.811L223.869 153.352L215.946 179.668H209.686Z" fill="url(#paint1_linear_815:566)"/>
<path d="M249.849 179.668L264.808 140H271.733L286.747 179.668H280.043L276.387 169.474H260.209L256.553 179.668H249.849ZM266.636 151.69L262.259 163.823H274.337L269.96 151.69L268.464 147.147H268.132L266.636 151.69Z" fill="url(#paint2_linear_815:566)"/>
<path d="M292.414 167.036L291.86 152.465V140H297.843V152.465L297.234 167.036H292.414ZM294.851 180C293.669 180 292.672 179.594 291.86 178.781C291.047 177.969 290.641 176.99 290.641 175.845C290.641 174.7 291.047 173.721 291.86 172.909C292.672 172.096 293.669 171.69 294.851 171.69C295.996 171.69 296.975 172.096 297.788 172.909C298.6 173.721 299.006 174.7 299.006 175.845C299.006 176.99 298.6 177.969 297.788 178.781C296.975 179.594 295.996 180 294.851 180Z" fill="url(#paint3_linear_815:566)"/>
</g>
<defs>
<linearGradient id="paint0_linear_815:566" x1="169.754" y1="180" x2="300.825" y2="147.288" gradientUnits="userSpaceOnUse">
<stop stop-color="#33CC00"/>
<stop offset="0.130208" stop-color="#3399FF"/>
<stop offset="0.385417" stop-color="#0066FF"/>
<stop offset="0.703125" stop-color="#9933FF"/>
</linearGradient>
<linearGradient id="paint1_linear_815:566" x1="169.754" y1="180" x2="300.825" y2="147.288" gradientUnits="userSpaceOnUse">
<stop stop-color="#33CC00"/>
<stop offset="0.130208" stop-color="#3399FF"/>
<stop offset="0.385417" stop-color="#0066FF"/>
<stop offset="0.703125" stop-color="#9933FF"/>
</linearGradient>
<linearGradient id="paint2_linear_815:566" x1="169.754" y1="180" x2="300.825" y2="147.288" gradientUnits="userSpaceOnUse">
<stop stop-color="#33CC00"/>
<stop offset="0.130208" stop-color="#3399FF"/>
<stop offset="0.385417" stop-color="#0066FF"/>
<stop offset="0.703125" stop-color="#9933FF"/>
</linearGradient>
<linearGradient id="paint3_linear_815:566" x1="169.754" y1="180" x2="300.825" y2="147.288" gradientUnits="userSpaceOnUse">
<stop stop-color="#33CC00"/>
<stop offset="0.130208" stop-color="#3399FF"/>
<stop offset="0.385417" stop-color="#0066FF"/>
<stop offset="0.703125" stop-color="#9933FF"/>
</linearGradient>
<clipPath id="clip0_815:566">
<rect width="640" height="320" fill="white"/>
</clipPath>
<clipPath id="clip1_815:566">
<rect width="640" height="640" fill="white" transform="translate(0 -160)"/>
</clipPath>
</defs>
</svg>

<svg width="640" height="320" fill="none" xmlns="http://www.w3.org/2000/svg">
  <g clip-path="url(#a)">
    <path fill="#fff" d="M0 0h640v320H0z"/>
    <g clip-path="url(#b)">
      <circle cx="378" cy="20" r="40" fill="#FDF" fill-opacity=".16"/>
      <circle cx="378" cy="268" r="40" fill="#FDF" fill-opacity=".24"/>
      <circle cx="602" cy="268" r="40" fill="#DED" fill-opacity=".16"/>
      <circle cx="266" cy="308" r="40" fill="#DED" fill-opacity=".16"/>
      <circle cx="154" cy="20" r="40" fill="#FDF" fill-opacity=".24"/>
      <path fill-rule="evenodd" clip-rule="evenodd" d="m158.984 6.508-.793 1.804A28.217 28.217 0 0 0 154 8c-7.732 0-14.732 3.134-19.799 8.201l-1.414-1.414C138.216 9.357 145.716 6 154 6a30.2 30.2 0 0 1 5.024.419 2.55 2.55 0 0 0-.04.089ZM154 14c.56 0 1.116.021 1.666.062l-.858 1.954a19.936 19.936 0 0 0-14.95 5.842l-1.415-1.414A21.934 21.934 0 0 1 154 14Zm9.268 2.042-.371 2.041c1.951.97 3.72 2.25 5.245 3.775l1.414-1.414a22.047 22.047 0 0 0-6.288-4.402ZM144.1 26.1a13.962 13.962 0 0 1 8.025-3.976l-.973 2.216a11.978 11.978 0 0 0-5.637 3.175L144.1 26.1Zm17.66-1.754-.396 2.179c.394.307.769.637 1.121.99l1.414-1.415a14.06 14.06 0 0 0-2.139-1.754Zm2.922-16.096-.314 1.732a28.04 28.04 0 0 1 9.431 6.219l1.414-1.414a30.023 30.023 0 0 0-10.491-6.814c-.01.09-.023.183-.04.277Zm-8.77 25.335a2 2 0 1 1-3.825-1.17l.258-.844 6.883-15.672-3.057 16.842-.259.844Zm4.903-26.273-10.348 23.562-.292.957a4 4 0 1 0 7.65 2.338l.292-.956 4.597-25.32c.212-1.167-1.422-1.667-1.899-.581Z" fill="#93F"/>
      <circle cx="154" cy="268" r="40" fill="#FDF" fill-opacity=".32"/>
      <path fill-rule="evenodd" clip-rule="evenodd" d="M168.969 282A17.906 17.906 0 0 0 172 272a17.92 17.92 0 0 0-3.637-10.851l1.163-1.758A19.921 19.921 0 0 1 174 272c0 4.502-1.488 8.657-3.999 12h-32.002A19.912 19.912 0 0 1 134 272c0-11.046 8.954-20 20-20 4.78 0 9.168 1.677 12.609 4.474l-1.758 1.163A17.92 17.92 0 0 0 154 254c-9.941 0-18 8.059-18 18 0 3.703 1.116 7.14 3.031 10h29.938Zm-13.427-8.726a2 2 0 1 1-2.816-2.816l8.326-5.51-5.51 8.326Zm8.333-12.592-12.328 8.158a3.997 3.997 0 0 0-.375 5.988 3.997 3.997 0 0 0 5.988-.375l8.158-12.328 2.824-4.267-4.267 2.824Z" fill="#93F"/>
      <circle cx="266" cy="60" r="40" fill="#DED" fill-opacity=".32"/>
      <path d="M257 48c0 1.648-1.352 3-3 3s-3-1.352-3-3 1.352-3 3-3 3 1.352 3 3Zm12 24c0 1.648-1.352 3-3 3s-3-1.352-3-3 1.352-3 3-3 3 1.352 3 3Zm-12 0c0 1.648-1.352 3-3 3s-3-1.352-3-3 1.352-3 3-3 3 1.352 3 3Zm0-12c0 1.648-1.352 3-3 3s-3-1.352-3-3 1.352-3 3-3 3 1.352 3 3Zm12 0c0 1.648-1.352 3-3 3s-3-1.352-3-3 1.352-3 3-3 3 1.352 3 3Zm9-9c-1.648 0-3-1.352-3-3s1.352-3 3-3 3 1.352 3 3-1.352 3-3 3Zm-9-3c0 1.648-1.352 3-3 3s-3-1.352-3-3 1.352-3 3-3 3 1.352 3 3Zm12 12c0 1.648-1.352 3-3 3s-3-1.352-3-3 1.352-3 3-3 3 1.352 3 3Zm0 12c0 1.648-1.352 3-3 3s-3-1.352-3-3 1.352-3 3-3 3 1.352 3 3Z" stroke="#3C0" stroke-width="2"/>
      <circle cx="490" cy="60" r="40" fill="#FDF" fill-opacity=".24"/>
      <path d="M488.297 42.162a2.162 2.162 0 0 1 4.325 0m-6.351 32.433a4.324 4.324 0 1 0 8.377 0" stroke="#93F" stroke-width="2"/>
      <path d="M477.486 55.135c0-7.165 5.809-12.973 12.973-12.973v0c7.165 0 12.973 5.808 12.973 12.973V66.09c0 .466.164.918.463 1.276l6.024 7.23H471l6.024-7.23a1.99 1.99 0 0 0 .462-1.276V55.135Z" stroke="#93F" stroke-width="2" stroke-linecap="round" stroke-linejoin="round"/>
      <circle cx="490" cy="308" r="40" fill="#DED" fill-opacity=".32"/>
      <path fill-rule="evenodd" clip-rule="evenodd" d="M474 290h16v2h-16v32h32v-16h2v16a2 2 0 0 1-2 2h-32a2 2 0 0 1-2-2v-32a2 2 0 0 1 2-2Zm33 0h-13v2h10.586l-22.293 22.293 1.414 1.414L506 293.414V304h2v-14h-1Z" fill="#3C0"/>
      <circle cx="602" cy="20" r="40" fill="#DED" fill-opacity=".32"/>
      <path fill-rule="evenodd" clip-rule="evenodd" d="M592 0h20v4h-20V0Zm0 6v28h20V6h-20Zm20 30h-20v4h20v-4Zm-22 0V0a2 2 0 0 1 2-2h20a2 2 0 0 1 2 2v40a2 2 0 0 1-2 2h-20a2 2 0 0 1-2-2v-4Z" fill="#3C0"/>
      <circle cx="490" cy="180" r="40" fill="#DED" fill-opacity=".24"/>
      <path fill-rule="evenodd" clip-rule="evenodd" d="M474 166h32v24h-32v-24Zm-2 0a2 2 0 0 1 2-2h32a2 2 0 0 1 2 2v24a2 2 0 0 1-2 2h-32a2 2 0 0 1-2-2v-24Zm40 28h-44v2h44v-2Z" fill="#3C0"/>
      <circle cx="602" cy="140" r="40" fill="#FDF" fill-opacity=".24"/>
      <path fill-rule="evenodd" clip-rule="evenodd" d="M602 122h-16a2 2 0 0 0-2 2v26a2 2 0 0 0 2 2h32a2 2 0 0 0 2-2v-8h-2v8h-32v-26h16v-2Z" fill="#93F"/>
      <path d="m594 151-3 3v3h22v-3l-3-3m1-29v20m0 0 9-9m-9 9-9-9" stroke="#93F" stroke-width="2"/>
    </g>
    <path d="M24 140h6.12v33.279h16.776v5.847H24V140Zm39.76 40c-2.66 0-5.064-.619-7.213-1.858-2.113-1.239-3.771-2.951-4.973-5.137-1.202-2.222-1.803-4.699-1.803-7.431 0-2.623.564-5.028 1.694-7.213 1.165-2.223 2.786-3.971 4.863-5.246 2.076-1.312 4.444-1.967 7.104-1.967 2.732 0 5.1.601 7.104 1.803 2.04 1.202 3.588 2.878 4.644 5.027 1.057 2.113 1.585 4.554 1.585 7.323 0 .327-.018.655-.055.983-.036.328-.054.51-.054.547H55.78c.183 2.477 1.075 4.389 2.678 5.737 1.603 1.348 3.424 2.022 5.465 2.022 3.133 0 5.537-1.457 7.213-4.371l5.136 2.459a14.196 14.196 0 0 1-5.027 5.355C69.133 179.344 66.638 180 63.76 180Zm6.885-17.76c-.073-.874-.364-1.766-.874-2.677s-1.312-1.676-2.405-2.295c-1.056-.656-2.386-.984-3.989-.984-1.785 0-3.333.547-4.645 1.639-1.275 1.093-2.149 2.532-2.623 4.317h14.536ZM90.886 180c-1.931 0-3.68-.383-5.246-1.148-1.53-.801-2.75-1.894-3.661-3.278-.875-1.421-1.312-3.024-1.312-4.809 0-2.842 1.057-5.082 3.17-6.721 2.149-1.64 4.863-2.459 8.142-2.459 2.877 0 5.337.492 7.377 1.475v-1.147c0-1.64-.656-2.988-1.968-4.044-1.275-1.093-2.823-1.639-4.644-1.639-2.77 0-4.991 1.129-6.667 3.387l-4.59-3.169a12.722 12.722 0 0 1 4.754-3.934c1.93-.911 4.098-1.366 6.503-1.366 3.97 0 7.03 1.001 9.18 3.005 2.186 1.967 3.279 4.754 3.279 8.361v16.612h-5.847v-3.334h-.328a10.735 10.735 0 0 1-3.334 3.06c-1.347.765-2.95 1.148-4.808 1.148Zm.983-4.973a7.275 7.275 0 0 0 3.716-.983c1.166-.692 2.077-1.585 2.732-2.678.693-1.129 1.039-2.331 1.039-3.606a12.664 12.664 0 0 0-6.175-1.585c-2.004 0-3.57.437-4.7 1.311-1.129.875-1.694 1.986-1.694 3.334 0 1.238.492 2.258 1.476 3.06 1.02.765 2.222 1.147 3.606 1.147Zm19.68-23.005h5.683v4.044h.328c.582-1.385 1.639-2.532 3.169-3.443 1.53-.947 3.097-1.421 4.699-1.421 1.312 0 2.387.182 3.224.547v6.284c-1.238-.62-2.622-.929-4.153-.929-1.967 0-3.624.765-4.972 2.295-1.312 1.494-1.967 3.333-1.967 5.519v14.208h-6.011v-27.104Zm21.505 0h5.683v3.606h.328c.802-1.311 1.968-2.386 3.498-3.224 1.53-.838 3.187-1.256 4.972-1.256 3.352 0 5.884.983 7.596 2.95 1.749 1.968 2.623 4.682 2.623 8.142v16.886h-6.011V163.06c0-4.262-1.986-6.393-5.956-6.393-2.004 0-3.625.801-4.864 2.404-1.238 1.603-1.858 3.497-1.858 5.683v14.372h-6.011v-27.104Z" fill="#3C4043"/>
    <path d="M169.754 179.668V140h13.629c2.4 0 4.58.517 6.537 1.551 1.958 1.034 3.509 2.456 4.654 4.266 1.182 1.81 1.773 3.915 1.773 6.316s-.591 4.524-1.773 6.371c-1.145 1.81-2.696 3.232-4.654 4.266-1.957.997-4.137 1.496-6.537 1.496h-7.535v15.402h-6.094Zm13.795-33.906h-7.701v12.742h7.701c1.44 0 2.659-.295 3.656-.886.998-.628 1.755-1.422 2.272-2.383.554-.997.831-2.031.831-3.102a6.004 6.004 0 0 0-.831-3.047c-.517-.96-1.274-1.755-2.272-2.382-.997-.628-2.216-.942-3.656-.942Z" fill="url(#c)"/>
    <path d="M209.686 179.668 199.049 140h6.759l6.316 25.762.664 3.435h.333l.831-3.435L221.93 140h6.094l7.645 25.762.831 3.379h.333l.665-3.379L243.813 140h6.704l-10.471 39.668h-6.427l-7.59-26.316-.886-3.712h-.332l-.942 3.712-7.923 26.316h-6.26Z" fill="url(#d)"/>
    <path d="M249.849 179.668 264.808 140h6.925l15.014 39.668h-6.704l-3.656-10.194h-16.178l-3.656 10.194h-6.704Zm16.787-27.978-4.377 12.133h12.078l-4.377-12.133-1.496-4.543h-.332l-1.496 4.543Z" fill="url(#e)"/>
    <path d="m292.414 167.036-.554-14.571V140h5.983v12.465l-.609 14.571h-4.82ZM294.851 180c-1.182 0-2.179-.406-2.991-1.219-.813-.812-1.219-1.791-1.219-2.936s.406-2.124 1.219-2.936c.812-.813 1.809-1.219 2.991-1.219 1.145 0 2.124.406 2.937 1.219.812.812 1.218 1.791 1.218 2.936s-.406 2.124-1.218 2.936c-.813.813-1.792 1.219-2.937 1.219Z" fill="url(#f)"/>
  </g>
  <defs>
    <linearGradient id="c" x1="169.754" y1="180" x2="300.825" y2="147.288" gradientUnits="userSpaceOnUse">
      <stop stop-color="#3C0"/>
      <stop offset=".13" stop-color="#39F"/>
      <stop offset=".385" stop-color="#06F"/>
      <stop offset=".703" stop-color="#93F"/>
    </linearGradient>
    <linearGradient id="d" x1="169.754" y1="180" x2="300.825" y2="147.288" gradientUnits="userSpaceOnUse">
      <stop stop-color="#3C0"/>
      <stop offset=".13" stop-color="#39F"/>
      <stop offset=".385" stop-color="#06F"/>
      <stop offset=".703" stop-color="#93F"/>
    </linearGradient>
    <linearGradient id="e" x1="169.754" y1="180" x2="300.825" y2="147.288" gradientUnits="userSpaceOnUse">
      <stop stop-color="#3C0"/>
      <stop offset=".13" stop-color="#39F"/>
      <stop offset=".385" stop-color="#06F"/>
      <stop offset=".703" stop-color="#93F"/>
    </linearGradient>
    <linearGradient id="f" x1="169.754" y1="180" x2="300.825" y2="147.288" gradientUnits="userSpaceOnUse">
      <stop stop-color="#3C0"/>
      <stop offset=".13" stop-color="#39F"/>
      <stop offset=".385" stop-color="#06F"/>
      <stop offset=".703" stop-color="#93F"/>
    </linearGradient>
    <clipPath id="a">
      <path fill="#fff" d="M0 0h640v320H0z"/>
    </clipPath>
    <clipPath id="b">
      <path fill="#fff" transform="translate(0 -160)" d="M0 0h640v640H0z"/>
    </clipPath>
  </defs>
</svg>
